svg/fluentui-system-icons/ic_fluent_color_line_16_filled.svg

<svg width="16" height="16" viewBox="0 0 16 16" fill="none" xmlns="http://www.w3.org/2000/svg">
<path d="M2.72734 12.0691C2.96766 12.1877 3.232 12.2496 3.50001 12.25C3.65646 12.2507 3.81225 12.2298 3.96301 12.188L6.36301 11.532C6.89269 11.3864 7.37523 11.1051 7.76301 10.716L8.47902 10H13.5C14.3284 10 15 10.6716 15 11.5V13.5C15 14.3284 14.3284 15 13.5 15H2.5C1.67157 15 1 14.3284 1 13.5V11.5C1 10.9325 1.31519 10.4385 1.78008 10.1837C1.74022 10.4015 1.74194 10.6253 1.78563 10.8432C1.83831 11.106 1.95061 11.3532 2.11388 11.5657C2.27714 11.7782 2.48702 11.9505 2.72734 12.0691ZM11.082 1C10.8301 0.999789 10.5807 1.04933 10.348 1.14577C10.1153 1.24221 9.90389 1.38366 9.726 1.562L4.168 7.12C3.93251 7.35538 3.76227 7.64795 3.674 7.969L3.018 10.369C3.00596 10.4116 2.9999 10.4557 3 10.5C3 10.6326 3.05268 10.7598 3.14645 10.8536C3.24022 10.9473 3.36739 11 3.5 11C3.54463 11.0002 3.58906 10.9941 3.632 10.982L6.032 10.326C6.35305 10.2377 6.64562 10.0675 6.881 9.832L12.439 4.274C12.7072 4.00571 12.8898 3.6639 12.9638 3.29181C13.0377 2.91972 12.9996 2.53407 12.8544 2.18361C12.7091 1.83316 12.4632 1.53366 12.1477 1.32297C11.8322 1.11229 11.4614 0.999894 11.082 1Z" fill="#212121"/>
</svg>

<svg xmlns="http://www.w3.org/2000/svg" width="16" height="16"><path d="M2.727 12.07a1.752 1.752 0 0 0 1.236.118l2.4-.656a3.159 3.159 0 0 0 1.4-.816L8.479 10H13.5a1.5 1.5 0 0 1 1.5 1.5v2a1.5 1.5 0 0 1-1.5 1.5h-11A1.5 1.5 0 0 1 1 13.5v-2a1.5 1.5 0 0 1 .78-1.316 1.751 1.751 0 0 0 .947 1.885ZM11.082 1a1.913 1.913 0 0 0-1.356.562L4.168 7.12a1.92 1.92 0 0 0-.494.849l-.656 2.4a.5.5 0 0 0 .614.613l2.4-.656a1.92 1.92 0 0 0 .849-.494l5.558-5.558A1.919 1.919 0 0 0 11.082 1Z"/></svg>
